-----BEGIN PGP PUBLIC KEY BLOCK-----

mQENBFG1+bQBCAC3p+fdi9+55LFuKPqW0XrQkQQ2CRfXcM5lqb6B4xQewLorsdX7
SRDmLzpdDZ9bCpqxMsiFbB+9lxljHNTzx9BIEO9w6aYtVgPsG4L9ZxwBXUTlgtIA
UoOy4lTQnUR0QDFlJQx8c4Cy82htOSCiWO4iaEvMbo+BGe8g4f2/N0tJOrnAc/xl
sdA64GTWId4NB12F+QeRgWWNQs/W/j/kyy37+L0juD06RMKth0uRMN37wEa9KcLa
lOBEUETrImZfx74wagt6WDnJknLf0ceqzfojk82po0C46BJAu49tLehYYKgo0HKZ
fK7CDw53y9SjkI8cU8g48AyUw8Uk/FyJeW1bABEBAAG0N0RhdmlkIEVkbXVuZHNv
biAoRGF2aWQgYXQgS0RFKSA8ZGF2aWRlZG11bmRzb25Aa2RlLm9yZz6JATgEEwEC
ACIFAlG1+bQCGwMGCwkIBwMCBhUIAgkKCwQWAgMBAh4BAheAAAoJEPVnVgXHTgLP
KD0H/0Cnj1bM6MYV5nKXJhLpd8as2OHFlhdtaU7QG3QcMVqdtP3rdOp1RgjmkYsB
xgwrxvDTLz0L/PH9UTCXjQeZgNR0hG8iy4IBC9ay0PDdkNpjnHoAiUMRstcDODUZ
QdLEOXCbPbRG3q0OlSaOvETL7YkSY8c2N6yqmWaJvudpJ0VVPyIWa2xT53JTXgAD
4m1w8MThAZBZpJi852nQCByCsRC+3cofA7bQd60XLiFWgmnq+rlqryMlWvUmMmat
e7U1NC5UsfH6ToXf/ZNZG+fMGE+ntYiHWRFr2tZMyXfUOrgHsAVMAE8v/xVtwS5e
VCAdM21GNG4d6XiF7T32GDzrEQm5AQ0EUbX5tAEIAL0uLkPxHbg9boIuVdahyy6F
BOcUf8xj3qj8FUGpRkcSSsoyvFTHZRTR+wwTPTaZzzzTFSITRGVv7vdKyl/A+SMw
/nlUVfB9xGvvCgzPGesUk9lmxX2DRVpoq9CyVIw0XXJQtNkC3O1yEws4zuDzHe99
sfDvXpA1ikfN+Hgn3oLjCHHtWuTyXGKXUimzToDMqWentVkP1rzKPlin9XJ0KDT/
axrrD9L5s4KCjHdWEQwG3miJDxQnlsAFDBj7Bs8DZZE+xdzx/l8qBKOxmXD9ohFp
4q0wXVV4QJMHtjhvhId9EN965drlYmMfusMCwavklBOWdR1MdSSBIYPS5eISmj0A
EQEAAYkBHwQYAQIACQUCUbX5tAIbDAAKCRD1Z1YFx04Cz4CzCACpN1l39Yzoniqx
laabcOrEbFjhKXlFXPm5TC+nj2iO8BieJLoltTcQL1nbxBHcxMkxUUJAVKBSmlh3
BPjYJhXBNRvW/gamjaO+LoStXI+0vO4aOhkR0tLqA9/zQFM9uVPu6InS0N98oMaL
azyxnXuqEanCN7yWfKHKxmkKiVMB1RMaE+2TYQBKPfFukiX2vv3qByVez8qYGa98
80x6fkrqFbPoJ2oDXEGGD0W7fkv1pZV/1XCuXV/qKz3htD3AQDuLijqt6sM9Oe7Y
Lsv5lqTb5DK6g2N9xvhTz64Z+j9bf44fbMReg3ub3GXlf9rFT8eDYfyYLJgWJ/1h
YZximth9mQENBFaTa+4BCACxyJ3oTNhz5oJOCu70mrxFqj/uqDfNm2K8Prr0CQ2I
7yXijfTZGVIjURIzp+Zhmc1LhZYlNwwI9ivFFvLoS9kH2rkx9EaIuP3ljtxQskRF
rX4BepR9/EvIoi7tUuOEqCy2pRy/y7Rc7s3Qbu/sPQ17wvRQqzTKsvoh9wxat699
0l1MFjlF/xBOD4Qb9LJGzc6Y8SLEEs7l/vAesL0viOME1hVQk+fG0KFosI32aeNn
nLHPZbLiZ2YETvI5nROMhleSDusqUpVxXzkIBcVLbCyeJooRsZAhJ6AB8qvhOXx2
xTBBgMpwaE/DHF6ZkvmsVB6lRNqMLjGeLOkmqx1vjZynABEBAAG0IkJodXNoYW4g
U2hhaCAoa2RlKSA8YnNoYWhAa2RlLm9yZz6JATcEEwEIACEFAld3rtICGwMFCwkI
BwIGFQgJCgsCBBYCAwECHgECF4AACgkQ/geEEX+84R1tfwf9GSACMGPFi9AArBwF
haYUKB4BJqNgCSRvQJ7gtG6YAaW+o919AtmpO+nq0JtvrSXQVLbJ1jxEMXsNJnvZ
ByiACm91u8z/LzMoI5C6RK13eGTTBr57LAE8lXI0xhkiSwQUAPQWJXumE1evoHEx
HrAi+z6aLa6QXwyqmP5amwked6S6R9GxGI2c+UPm9sVh4Lb1L/pEzeCdt7/1R1ba
AQ+weI1cVbfd4b9Qc5r/baq41CesZKz29UgorqiLyBXlWLUCClAXB/nrbAh7hR4p
DhSsIExSTp8gBnBTpKc2NAzGZTxopcvi/SOAxkdFlfkBewXuvHOxg0S8s8z7Owae
ckbj7bQgQmh1c2hhbiBTaGFoIDxiaHVzaDk0QGdtYWlsLmNvbT6JATcEEwEIACEF
AlaTa+4CGwMFCwkIBwIGFQgJCgsCBBYCAwECHgECF4AACgkQ/geEEX+84R3CQggA
mSPWL+WBizj5WIcSZ2Ox1jCNnCcZ73K84s7ZSd83mq6fgi4O4/JqoZCMCU2YzMuo
7Cs/h1UPXkARgf/bPFi7XKvEytQd0lOSUSubn27ederXfUuhUo5FNneiyYBX9Ri1
RjOPv5oE3cmYWM34Xvl/O6ucRJ28s8Z9GuWG6NChbbHdkDIhulCzWWiMtIQXG7zG
WRdjcqRItGVSjEaCdyWEL6i//5n0TiM+PPidmFO4A56blLCHrIe6MPW/fAiWBzWp
TxTUpn66XC3AMBWdLT/5ZCNea1qXY+I/TBwIiBl1mKFN1j945j216mnX1IHBSR01
yrMxsBnJ+Hx3i32OxhEfjrQyQmh1c2hhbiBTaGFoIChteWtvbGFiIGFkZHJlc3Mp
IDxic2hhaEBteWtvbGFiLmNvbT6JAU4EEwEIADgWIQQKrHdbtkN6jZr3o6z+B4QR
f7zhHQUCW4T3zwIbAwULCQgHAgYVCgkICwIEFgIDAQIeAQIXgAAKCRD+B4QRf7zh
Ha3OB/0QBQ8tc6WukC9ubRd5A1vEe5tSWvzJEB25mc+YfXj3eha9ZhGWSNF7iHQ2
78aKgyn4HS/Mve+A+w7ZQWtGK1sjxC1E7qn1U1Xx5BoadbvEfN8E9Vun0NPLa/FX
tz6gTnGPOkgJ6NjQuEy6aKT9lGbHuxXBLPfGfEQrT16ny0+Nc3Is1cSIWsmyF59v
ZTH9Z8uJu2C04lyMkE6huTdbLm6YAFzN3U2B/96ZG/9GWr1EImuVg9z7vUIlENbG
/ARHbdGdTqwKzjLPMhMRmSQt9pjOA0K2/o9y7t6JgQiMC1DPl21INZHmYES9dlfy
EiaLjVYkVunL/tJHXO9RIoqWx5nPuQENBFaTa+4BCAC8D6XyewOHX+nTc4mBQfLm
rmNJu6RX7kY/cwvAsskevOTNPzgJJtnUJQI1iABWI7U88afjAvU1wzYrBfEfQ43h
1cPw6NMY4/cmHe8YimCgk8cNYKGS0sM3+YJ8hNTSGxKJa7Y3RDxDLK9fSqG1xa6U
RcctNT57rau7xUtVExFpN0qGeTtMAOLDp36wY+jSYBpVZ7/Z/j0SDQf9ShU0G2OZ
MKsZvcH1KadOVW4kT27ISHN7EJbjdMPCmZytJ+5Sxi9PFHYCr/nR1qBY/j0ouKS7
1uShzcssz5WgnkmP87fvsfpfCQJl5SkiPavddodZoBCRRKwqQnV7ns3JFmh7U2+l
ABEBAAGJAR8EGAEIAAkFAlaTa+4CGwwACgkQ/geEEX+84R040gf9G+I/AM1ub7UA
hPAQPZ25SdIaTH96MV5cmWsucTnGUy1XDh8I0hZaEB/kkWHOrmbKyqhg/NtgEqXt
P/kqJX5ruTt9AN3TSlxJ+IrCywCm33kS7yPRADgwNshoCf/HH3VujccN4KfDjIui
jLSZbfIbG6cGo2bgqz6t4p9NaZofcQhFfPwAgfv3IL1DNFqZvUohDPy/j5eU7IdD
jytLnhGUZTfSrzhWXkCZybKROW05zScMRd5uL3b+in/Zu8rgeE/lLF8nmD42YJ05
8n+72LjR7P5DqrblbAhLiQg8CBbrIFJozQUyUDnTzwsGRFuQAx7brypsOSqWfYcV
EqXxiJwdrLkBDQRaK92CAQgAuuXV+Yh0qYO6WQZLnE+X0BivPlRY1vH4B2zDgDBY
0qrbIdPl4/pvbwQLk/Vo2yVZqHfoGhbqnBkXZFpzV9QMOnEdrrMo8unm/02f7buE
Z56XkkKTpelsl63Qu0qu2/ISpfxCxRFLGZdj+VLA0SWhe0ecwgR+91ZvcKE1byfz
G9+sbVY0v8WQq9Zfx0hUo/0Jf7+FAiUWIgmS6XHuCn+DYBTHrGcGEf+CU64+lfH5
CbGz42AKqsYzZwYWV4RarwNBVDuM6XdqlC9m4WcROos5qyV0XQ5sE/SByuHO1a5Z
azFFPbrnqiBtg1POQs4uQw4wU2RsEM+bGUIRNTFoIpjHsQARAQABiQJsBBgBCAAg
FiEECqx3W7ZDeo2a96Os/geEEX+84R0FAlor3YICGwIBQAkQ/geEEX+84R3AdCAE
GQEIAB0WIQSzyzZlUlQL4G7prZcRloxEkoyu/AUCWivdggAKCRARloxEkoyu/GVJ
B/90wdV5Bsb53X/ai1HdScE7dP+clhDjVEgU87601F7cntzeo9EASso2YLdkXnNE
4Gq8THUpXLk/PLTlum5z2OrOYbcfrzWU1kLRguDgVciqcyI+4ev5P5wchTrLrROX
7uyEGq5fTHYi7xEmolRGXFUEAcsWRGwS6DOq28sDSbho+LRLXyPBFVE6lTmXzjIa
w5pxPgMXHGPjb2vuHP3hcFS38CkbKgFgnvlCzeCea3y6rVs86xVUi/l1C/tAdTFH
kxbQQzyobNWOF55ujh12iWOPFqlaLXSJcSgRb6JBumPS3X4g3DEOeWLKOXgqXXWd
Tz9n925G1s9Zz5EqRGOPg5tUNpoH/iDhWtorPX9ypuWLPmJzq/e/6l7d1YY5p1FP
88fG+33LDOxP69pCqfIoS4h3xtIBtq6ZOD8veVhb4GXSX3o1/rHEur1wj8JdIKTi
yLQcc0bE/qqkU1z2wtPDnpDMiSp+K0XzuerrOkTR3Nvbjq1N3eAT7cp9u+t9jINB
e4L36+DzQZdwUGvi7ojMPTY2vKM6VZSHEKDmw1C4Ifp9oSEVAlQk2AslldLA/8hu
A3V752+CosVz4kO0g/fi1LqkTskFfRVO7Y1Zbs5N4qb/2rdXp4cYEmKNe/II+y9x
oCxyobBEZBECLHCZfIdO2sB4nt72Y+0/G52cW2Gz2yjbP0MaZp25AQ0EWivdvQEI
ALOgPIfaCxMoYYORHfLJsJ56uOGP6YchINfy7wGVvtNPvnbC4Xp6q8UPSijoukja
fw5ZPZFuBZ7E3Qq4Vx/eRTcHoYq40CahxFDmUvt6bnDCFlsMXNXCSOUtnhej5clM
jCtm7awtkOD25JQry3AmmxAeQv807LBciYy+/idRlav1sQyUOgchiS/nsSQX+lkt
jwXKks7Qj/3Oplu+D8jTig2qGdNUredkbgZhsVsdvitmuJuBq3Iaw2ilX4l69g9i
oxBi7481bmaLV1P2BtHsqUpmE7wpw4JdQ+NTBiAPuM+Oqo28mWTVoov5SH9QHOev
gVJKCfM7RfBj8zGVJ3H/DcsAEQEAAYkBNgQYAQgAIBYhBAqsd1u2Q3qNmvejrP4H
hBF/vOEdBQJaK929AhsgAAoJEP4HhBF/vOEd33QIAIV/Wuhv+KHYKkKzwzJYqEZE
KReFqSk91W+etHDf72mPB3J+IfokNYCSgEm4R/570p9uIBBccxLPwTvbJU7v9Utv
c0kFcu9txNWOge0W046qquRoWIwFZxbLwcSl8Xwlhitrt1TAZPrsIRxyzXzHeE9V
TIAWQftnjvRGp8KfdCXoLglMkb4KRF65pzMPf51hPSQ57b2VhmwZoh9Y4b5FM4cg
Kdoug2Ch/gPFWTd0KGWuSRs8xKnUugk3X0j089po81j1DTcMezAz9QZbSs1qM1Ph
xl/SaJEEwb/SP6PaGS9MPvfMpshuzz/St5LWesGCOJHMG6cWIm/QAFIuV7WWKpiZ
Ag0EYVWbOQEQAL2uhsuPhkyNn8SEduJimvb+L+5bfxPqo/mbCkAZ6Vrf81aGPOnZ
rqt+4tNvo61eSiZwyLDNVcGbZUKgXnPt/bdznIKTio8WdM1xjGaqXUxpGsjjH1lv
+JXqOK38WSI08Jz/z2S99ZUzLAJv/S44ZFvPD2UY1Af7ZsmQcsNLfw9+sAGKQ4p2
LvlTHWk6XrgZWcrGp9dIHrd314O0sQsRuO9s9F1klK4VMUuVH65kqK+wLHss+GlL
8Q/JbVKdX0nLxkCAwfPRVmeRmcLZbXm4zwU/oBFS3GVgym1S5Tv2IRFgp3THAIcl
PgYjc8UyMAwv9cfOTPNcmCRmbVgyPLZ00cpzTuCUDp5+qtvzYHOpanqZ+5SdgGWc
7njINTBR4Na5G9knA3G/SPfV4ANiVmg+SQ9fpRaprJ4Bw8QE+h+JqzFTDmYh8//c
cCwlwON/c6Pm1jITsQvKmpNY+9LZ8FgJbC+Kl/Gw5CYD3G+UJjYwaEC1M1x4lxvf
bhs4um7ADYZaazIfD5zdu8sPs8Np4tnuSOq7U0GqDAMRKA7uw+tYozgZpyWCv2wC
29+v++WQdEJNmGmW5m5b8ki6Kmtz079mKBP0D2XFtB7UKbRU80eT7MOX/A9O/skQ
Lk4Y8BjsbqzttAvGnsLsW6U5lyMpaacQFZVXU7uJ57xhlDm9lOZM0jZVABEBAAG0
JkpvbmF0aGFuIEVzay1SaWRkZWxsIDxqckBqcmlkZGVsbC5vcmc+iQJOBBMBCgA4
FiEE4KPrIC+OV1KOE+cv11dEg7tXsY0FAmFVmzkCGwMFCwkIBwIGFQoJCAsCBBYC
AwECHgECF4AACgkQ11dEg7tXsY1xkQ/9GGyd5XfSVCDhCPsl3+4WGGu8wdNq3DwX
XxsxavuD+xtDTPtx7BPxgz7Zbb0ULiTeBkcDwvB+ryDksAzwZu9qCCfsutO+CUuL
6Ff9TiJTsuirIfW2nJkQ8PTyqpSSMRHxt8t+UESUhKMZvvF4kxuFL7XS+3xBBCVb
sypFBCjRtgHp+guuZbdq/NnP+ZvYgvdEBaCjBAn2vEb6hb7eUUKNIa/Fdqr8EZwN
qOSr1R4MYJHdEc6OQNURfrG5LsPvorRjfZuBhuwPMeQMdGbm9HQtfFApQLn05ASg
0sJ050WVfibUubaxRr+9eeOuk48Am+KP4vAO39IHUbKAn+qK076uJO2BJubJNjzj
Ffh0CHg16eaTUkXemF/BreeYnNW7uiIK8pOxWt/yCclQ+rwyyBS5aBD2q7RRdZFs
WedyRWyPrEEa48iCuUaTZX1FOqJF4lOxT9F3KlXM7quyETItZLRMLPKAetmTchLi
k5FS3qK1SUlIJ29lENrcCE9SRC3ciyjRLyhlbM/7OVcy9gW8XWmC3OL1w+puAkni
5Anzny6rDSPCMUzcJjKtWstY1jaQ8g9Vt5MfoGHqdCnhDQpecO5txRtul3bEweW0
cQjqCZr0BOFr6784yNiBemQA/xQQJwXUIP7AgLhziltIWc6aFFqL3YyNsyRv3TmR
jNT/VLepn2e5Ag0EYVWbOQEQAJTX1HryDpOeuelQLLDAJNVkmRjYlWlKVAZheN2A
LrUq3S+MwIDux1yRKp8TSpMiPEeYMHvwXZylJ8OYoSB3wZh3Ey5SpNZLtRZEPdFu
8NQFEsb8oyKD7ocZ743PE6/6/AJye8zcsBk/+T9QxtUA5hAUBG+bXfpQ5pOerUG+
ycMAyg75RLvY5ZVfNNZyBskugurQcp8KsDR8MqeeHQc8ZD7nyo9+ha5q1nCD47rS
ggTZ3moutLEA+5QmNpYPXKU2VJu6dA1uAeYzV4orfpFQ05zV8MY9ZDUTT55m5ljk
d+ccUOWJnmuwmwquo4WEA1xG7sGk5YZVIGqaz42OQJQ4bBTuKv2OAgEPF2O7fy6u
LcEINJg+sOuy4U9Ishpv8G5oRxvMuyAACigxswcXLZYGrDVa0lq0aGD6dqgmOFrF
t5xo6BTXjQ5uepB1F3Y+kuYhEDN7mgW+P1Mvo0S+SSFag5bcxQdtX+yCKW83im4v
4n6WKCjBvCGfL7J+TRe1dmT2dTT96f1RhQW/JCDGL2X4oTrDKXU3vhEe8Qu086nr
SU4wIH8IAX6rkPdcjiD0s2/eTIIGnjQWrleJVww4xqY3Gru9zz7YhpLNGLJJ5Dr2
F12Ep/tGbvHhmNbdtXEW7QMBCLgJICzPcD7+DTPgYOtkOpnI3LRXFxdMT1lmuKE2
+hO9ABEBAAGJAjYEGAEKACAWIQTgo+sgL45XUo4T5y/XV0SDu1exjQUCYVWbOQIb
DAAKCRDXV0SDu1exjQRlEACH0xskIF1tVrmHabcABtgb4Exmw55IRJAK7LRszvPt
ZKF9Jp94YT8qEm4Apm0EeiksDVUIXviHe83DAPEAb7ypvMbG67NX5PHXy/KJjd1a
V/fQvXKmrp87nd+5lKA8HSDOMKgNwl5IODsV1NyozOO6bKzdOG84FMcHWDDNBa55
nwJLEq93fgnsJDttSnGMO+BmkjeBt1bfsXXUpSAsX4e0PVs71LNOz2t2kakV6xKO
gXamXYLSmXOUHjTGBv4JbgYvtPbnfHXEp6MJ5qzYTgiaYPY4246qntDfXHjnpxCv
9aol7sDiUgNFXNrb813SoYEIQguYyUgwP5ill1C/5Y793oa/rnC3g765+O50pwiw
ivLPttULbzM6IDCZWacOE6QBqQCQglVMxr3HIVW2q4F+P3P2aDpbssvD3q0BVdPr
IqRBEeRDb/fq4GCyuXbP6T6YVabghLZEaAN9O2urieX8sbDJv1PQwO4VnwVQ9Q08
rbxnWJhZvS1N1rlBzloKtplwWvRpHg9hOgG+3ma+tX5Ma991XO9r8mNxHC0WfChF
SpKUFImoLhapmaQHveLXoyWO9PT7i/a6ma53gkrDYpOjCFmNsYuUGCsAzG4Ng2/3
nc+ghsoq4P27B0+QKuS4vVdCwENaweBb0NDirRs5uvRkHElZTMuP/kTDWIUvPk6h
LpkBDQRjMzcqAQgA0SjkBiKcYsNPSxk30clBjkM7tvmKFmq8JFQDlcReM3LOqv19
Lf70rWl0QOTfWsrrcy09tNxecoRy1cqBo8Xfzw5GFYHxCDphGcdPt6m99gWO4k1q
i1Hc7lrhwLT5vxMKHG6Q5XnM+JRR+B/NpJ9WtSFEGjyVDt0fhYWxVGE1jS9hUHYe
lOFMbgqBGfwPFkJ+fik+w9CQwsNxRx+QA73ZKfHOhceG8cTZ6Dbhw+y0MDG8Vcuy
pVuEkgDFtp98fYwEVVzIwTFJ9xnxV0kVZ/yuznTfOyS3hn578sYOU2bGKrWU8vND
kSYO3fbkai02Ezkt8qwKcKwJPWxfUhL7Vb4zHQARAQABtCBDYXJsIFNjaHdhbiA8
Y2FybEBjYXJsc2Nod2FuLmV1PokBVAQTAQgAPgIbAwULCQgHAgIiAgYVCgkICwIE
FgIDAQIeBwIXgBYhBDn/qTyunGr8ISrQAgIyVEggTkUqBQJlxNhbAhkBAAoJEAIy
VEggTkUqapwH/1Ug8S//UVhRxR0HqiweJmmq8Bc3ACdZEXWwJs5vFeSSocsoZyDB
RDX/AhZSLo9jh8orFUJFeHpkjXU9kATNljEeIb0DYbdAbBMdOdQeQY33ljZKg6/b
5ieMM1GMtQPl454fyHntcktuxj1lYH3y8+z0L3FAk1W+ndg+E2jyulGD1zNrBiNQ
TUvGbxjdEHsEDoO7ac1RMpnM3dSPpS5vW7OQ+lZY79ceW7QetEk2x6EDzNj9WIzp
Q9SZO6RWXbhhHmUwGUOpg3s/vtOh41msBz+GzWJ8MPzp34zUMDdCBhIkJJ7HKHOt
NruAF8uo643kzZrvCBH2RN7sEhZNxy9WNZ20IENhcmwgU2Nod2FuIDxjYXJsc2No
d2FuQGtkZS5vcmc+iQFRBBMBCAA7FiEEOf+pPK6cavwhKtACAjJUSCBORSoFAmXE
BrcCGwMFCwkIBwICIgIGFQoJCAsCBBYCAwECHgcCF4AACgkQAjJUSCBORSoG9Af/
SHFrjTAXZJhyVLYGKLC+3qiBDHVNmMXksc3NatDYKuEVTnqR8ssW7IjClXWIrDeT
2BOPd/Kz/pL5Y15b5x0kSO/zIcTCH4dwggAM6pONUPyA1FdJUG59kIbrjw10Svz6
EsC/DQr9vxIZrXtWGe0SM9X7C/5OafitSVLs283YV5y1W6eOKE8BTQgAvYBYCmYx
vyGqmVKU2mD2sLcEVGPIyGqGIdBJZ9rPx03XDe+KVmk20AQeC6RNUOwx6vwfVbJ5
5lCwUg7GLChaP2VIXIW6mlw71YmDPlFrzF+eSIVP7jRCcrlEDfUUIjdVUmUXQ6g9
PP0Caa10snk/DQYvMc2q2LkBDQRjMzcqAQgAthy1slWWjx+e09FFYKmTWFTEUowZ
ndpZ0KgeihRpOlz7s1O6BrbDw0xF0UiBRkBQDg9SIoH5WZPy2P9fWdf8xC6a2I+I
MzaxDHfDgh9coRmY3I8a1QO/3x2grvxw0ptmoKVA7mWavQuqWhIDpSVoEW+BYcYb
IPk3rAAAVpEBcRou9nhnLLYFh2Qn0ZkZo+AUlQeJp+iZtjkZiqyFl3iKa+sHouiV
v9qaU0tpfAyh1SCkTQGVs2UDWWj+pR1UDPyQ9Z4232u1FC8eEf5l0rErQEnK8awO
ng6EPOPSXB9kq38lTbKZKctcJEWcPILq8+uPOmQFfLYSEIEXns4lnH3+DQARAQAB
iQE2BBgBCAAgFiEEOf+pPK6cavwhKtACAjJUSCBORSoFAmMzNyoCGwwACgkQAjJU
SCBORSr1UggAoVfxzjeSqRfknWk/kyU/vnHFAomrvSqavs1yVTcFBZNf6hnfqpan
wiVT8MvzHs6mBjn2csM/dFN7DNRQSx+qj1pZ8445Jldos1jsU57fNycXoBv7CX53
rVqrc3JKpXNtLBZ1EmYt/7u/h74emK4LREaKo+pTnkejnFSnixNabsrE96YDXBmC
7G6bFbitYcjjXueraXDMbmHdIXBk6XR2GFpxJjVDF8pIRek1loyrOJzkOihwebES
/mY/9ZPOvc6JOEncIK9dfHO9011G1zad1FEZnb7hrIgcE6vvRuDP7oRjfnEBp9W5
UczbiQO4kEGY5IHW6sJzvViZqkFoHcg9+pkCDQRSKGtvARAAl97GQd4YyD5Wl6Lk
CzA1+8gORXlXHLMmnaDZ6SeqtOGVEmG2Fl71ypAxCvQ/A7EO3H7VnGn0KjcWpn5q
kOX8l7W0LJlrctDK3JHE+KQOTmmZRmSIG4IpuFAzrUBdxGArcNjMKOF50q0La1r/
All2NbMQrFX+P7cR5v1WdrPKZk9m9PqlSYFHit+NmNbGRaFbQA3DAjArTEYtScGe
QEbYUbCwdsvZeRsLEl99BbyMHxsxzo1lnOW87mhSGz065/Kcgg/hTVrktTrYfCxw
1e+jf32z5IKCpOGaor29vzXzpT4htrj5YQj1HdGaEkjuARcaVv3ZAG4p+X1gxdeH
FuLRPz/DNg6VJry7H64NSxssqpM2IvYWvh0FRx1AtpPJSPjhCKF/j/+CTCtt464y
XY27agkbLhAFBhbF103+F02jIukkCQmiMnVcvXoZ/X+vJAlbfRQP4L+IduO8BZE0
fkYhzMUWZsyOpzWzfKSgI7CpcIeE3c1OwA13z0oc2nwu3LOH0t54W6hI/Kd9bfkm
Cv17CpeQkzIWQ70V5Yzw1X08iwbUDQtUI7fFKPsvQu2nwf1ta4QF2+eQnSb720Tf
lvnTDnxKTZyXDQqNaL/3XA1uF4QeGsdF3eiEdVwiENLiR6fXtoazdqvbRKzuw3qh
5p6C/U1QZrI+0gMeuHOSi2TFrwMAEQEAAbQjSGVpa28gQmVja2VyIDxoZWlyZWNr
YUBleGhlcmJvLm9yZz6JAjkEEwECACMFAlIobWYCGyMHCwkIBwMCAQYVCAIJCgsE
FgIDAQIeAQIXgAAKCRC7RjNQ1u8x7+tDEACRF1c9DVGJnubyrF5Aqn9ChCCR3GS4
ynTxmf21xCoARpbbh8edBlzxJ7HNf1+t/0wEcmKGNdaRZUVIyXMCj2Uye6/CKbmB
z0ynHjoRkVSX+imJynJKmKjWsqctRqT67K9pnCB5KIiUK3c3GWrxd2u8dZUJpb5X
hbWzIDwnR7AdvoT0ytuANbUA5gtwH0WriUQ2qsZK3tzmm0L4EJ07qGXB94WYVaLr
z4+26ja4O/v87Pm0yadGMGjIFkq7u8g7kiME1VPvzjkUwxk3XcDVcFt5Gjct1beM
X/SUt8WLYfL3XUyU8i/UKraf0hPG7TeWpPOvlmfjgMicmfgYDXMyTz3h54GRG3Av
IZA9oMbcsc9SX6+IayWCN4m7j3qZWBbzCtbkXTJU42dHKjnANTRj+5e8RVVaDaI6
WzWW4VCLfJrsVqEJvoJvCBrpfVClV64D/tqiCHNbBpBIcxBJd6i5QceS95EHBRjC
vqeSUNvyVeIFWTBOodycMZufEtCMgPBvzSyT0FUtjk1PtQowe1VA47PiyjIw7Crc
TzfC3KhOb0iXZLPVXZ8+A3Zbgq3iFt8MNj/Wvn+OnvZ6eFtoH5yfqmvrMisMmRxw
MH+sd9WDqIpEf/vQhC54mA9F99dYmqYFJdkfgAaECqdqR+LwbNl8unPs5/BFgHGN
+x6HNq5UXNx+pbQeSGVpa28gQmVja2VyIDxoZWlrb0BzaHJ1dWYuZGU+iQI5BBMB
AgAjBQJSKGtvAhsjBwsJCAcDAgEGFQgCCQoLBBYCAwECHgECF4AACgkQu0YzUNbv
Me99NQ/7BqMpvVbZ8JlYrN313mNAcI70Upydrxrn/cDY40DcYkm4etWceIFeMNUh
i9abbTxI/91bmyyLV8LB/DNlgxZeYFuG+QBhhXQWwZT5R43CTCCwnvbNWsnNB6Xj
Cn/VZLmPd1nEzNnB0I/eqMQ8i8FhImkiKGER4m9vF9pmDx3LUN9O5qfBxdxnhbWP
fd+mYgHxFy8pFhdn+YkilyjCvLez+3YAwFEPgviH8mKUCxHBlCjFaQpOGaEyLbYe
en3usacKNT5ZS6F4M8uoGEF8KzpzP8N4/9YSUGpdqP4FFScy4a2/8yqBMiIcVfm7
4BYknfwoQ5IrbMdan9BTG7NwAj4Gwi2I26/LBTBz0A08Ng5qhgi8BBgIfyhEPkNh
1S0vPIJUcFS6djtevtunZt39w4IhJZlt0H+IjIY//ihsllH93kZXYP5k5QXNL/EC
oSUvGvj3seqDzoyKPfssrkpdgSvFb5vDC4uRRTNbi67DKNaZZDXUylD6DUUwhC0R
ACL6tCApy4rdo8A0+DeSVlnAGZYWAGoO0dIJxDrd1QMQpBg0nUtZjIJeZ6YHrLt0
+5PpISBHL2lOPIOyCP6uJIGCb6fIlg8CXsPp+j52L9A47Zl6FyEgyJJjhEmtT8uD
PitvKJgbte9HrHtwity3qzWwSUp5WYKGFKkDDxrjBRNJgjm9PvK0I0hlaWtvIEJl
Y2tlciA8aGVpa28uYmVja2VyQGtkZS5vcmc+iQJOBBMBCAA4FiEE2BwMs463Je9m
kcOFu0YzUNbvMe8FAl/yQJICGyMFCwkIBwIGFQoJCAsCBBYCAwECHgECF4AACgkQ
u0YzUNbvMe9vSg/9EWDABoxvaYf59+nthX/oGzJk9YIZ6nPPwlPqTY3jQtZxvDHK
m0cfpaR7ZsZsax9Riq1vxszr1GW55g6aY3li15P6UdTHtNfJjqoqPVrxulfqugvR
VqHzK6MdkK6oQb5H0F1GUZZZrnRhDlU3udNeSYz1rULrguAmcbYeDvyvuWlNJ/lp
qCuTy6Z89kZo8UxVOQmbwp9qjMftnv9FiFrWq0a6OuB/Wl9+1SjOd5pOCv0QEGgr
Pw287MyEcDbLX+Dr2Qgdw4v/i5A4vFBR+5wzAlSurBmFIMai3N2k7uG9UY7fhy7Z
819zGpUhLngNp3Stv3TbuEr1j/pv9nzmks4irse5Ea6bR59lbDZP93ZjnYJ9Z97A
VC2/rykhX6bDhgiUgodhMBnwqH0v8okH89QvEh6hyLd+0//Em6WjdNxXuDF/uXh7
xV7kN1Idx+s+z0JClv6qQjKbycKiQQGhkqLalGFTw46tz9FQcNc4OAvuYSb97K3+
i3wBHVQkPIfMzxfTsVz0hv8KJrVo7WFCk7YxW5M6Goct8vKY1/xkWwlASlE6LkS9
LsSK+oMMUdf+dOgR0aN3bFxfOPlRPAhnUTkZQTVFA3sdquq6LpgK/g2haBkmm7C0
NQnX4dfuYPCRJCvIJR+PEvWBYhEyonob0wqydqHayMLuqSTurtPwjkRBwUq5Ag0E
UihrbwEQAKMqBoNzIZF4UJCarBLCqvg+ZlVsGh+AIYd2LrozpPrAncTqJ0lD7txz
M0ImbMRa6v7E9kIK2PjCHoAdGbVtAaYmnCJGT2qYBsUmgGmb+fCAgYL7l+TdQs6i
kBo58jdNXslLzfptc26gdNIg3ieDCOQSVoqUpbNGoRUKi+WZBWe20Q5D3cS+x6wS
VbPEP3LNHldkmgLFcVeG89Qz3cprGWyZwF8/V/+k7xbvgDQw+l6oYWErAM6wr5F/
FVQgW/oHcBcR1PZazmBqhS/2xtGqTZMtgyC0QrvMv7x4bboEQKSYk374OFE6HPS5
GlOfIEG8J3z+7ddx89IlSsMj7pbhSvkpa0RzqApl3IT8K4S4i1h/YAnnMbv4Zv7g
4/53DWsYNLVOJskaDwQtjwt3P2zR0iwa7d0F8G/x1OKLeK1eAGMAID0k3AzD6/0i
LOBbDD9pX1opzLK1DvU5DA1Z6Oz8xZ3BQP2Qn6dPjTF28QhdgvAsmkGR5AKbh3NW
thWd79yq5qgfv4du1FGZjRh2xjmLdHZvzVR59OTTZYHDQrdXrUpIxS76PqVgp36g
4UwQfpj5tZFta5vt1/Z8xh3wmzFnMt9smvZwxkPWO/M+RrqXewrScKoxQ80ddB6k
z4snQ64imFwdILmEYie66nmvuSzOeJfwvjXHw2KbviszJrzlAh/FABEBAAGJAh8E
GAECAAkFAlIoa28CGwwACgkQu0YzUNbvMe/l+Q/+OoK3pMuZiZsEWtiKmaYJOTxO
ZjdBLngld4h9StYyo1PGRcBJABtFxg3D3vJwYF8XzQp0zGshd8VjVjFK19VnBg/7
RMpZFkQ9whlbwUuFNF8puZ+4DYV1zgXy5/Od3skn/dDhehwqd9U1qv48JoxaRu57
80EleAqTFp/ix/VrCdtFbEf5Nk8Zh7aZRn7/804lOElo0sow0tb+SUXdOGcXuOLZ
z9VH4pB2Qovx3rTFfuIg3KeLNDN/2OWlbUpwF6MwMd7hF0Jg3IRRRMxvuJssqG4/
pvylegARpM16cB/E8eeFOcE8boZJY9G5i2cMDdsaVX5Y2VrSTXPWYJUvD0S7pbt2
fG1UDk557qMmcT+/vUeV4Q2P0gNr4+5/8ORepZ6o8m/BbF69qohJdhNPsQGulBJL
vcxoFjzUx2ZprYgyrKoZTVuHgKYTL2Ragvuou70VVfZqGfvLng9KzK1XT+d7Yf1v
0fXELX/7MMLaH+/REajmwvVK9/8svwgjTyPg49aqjGbBRCgC1YqXHsSm6hoUHymM
MGioA0nvJlR3PyW08KH9q5j8W5gTUFlYB8EVVBgetyZ5/Wn0t0mBAUwM/3+EukwD
N9FS9k6Oh/ryrXOGT7c0SEA+XVN0g1k+KhjLrAIEpaxuefgXAqrYBBBe/yWzlB2y
1LvPoPxdq2aQG7K+VfKZAg0EV81kPgEQAKjRgoJQSFNju/xVlXDdywC2exFIVDXw
bzF9gi3uYkQGu1+IYbiDbwSM15ZB83zAYhoB5EaXmdvuz1FGnFdK1S7vX2MZfVn1
Kvyn8k6YFLmR18C1gh30KXdWwZG9/hKaDUKWsS/q1D3uP53UVjxB+Bb8ZLjpgE4R
44VVBG1+Lti/2VmSIEWvM/Q2vslX27UaQGwWA2RW5iz/dENhQsi0HAYV6t247JAI
63zX1C8cdJmReolbA1E4DqVzyBbfqUpsMehnWNKQOcNXRtbRxfX/pYlLNZh1w+Jx
4DW+P9UODQqvbdJVDU/I+8GKtPtOiKtCboqsiIodYtKDXnqG3z8rYLUODKl/5gyx
4xsdDFUusjanjOmbG7cHZKtKPciYzkU7RcZ3WDGf+rLA1UkNAF9xied2SwPaL/38
Szwj8Xo7KYFmXgdYG/HuLGbYk9eSbBU8QL+Umfd4IFvV8BolKWuge1oAS14Ja4Tn
8yD+5gSHVR4Cy0/js3c/QHeXUTgJzDWd7b87UF2ydd5RojdhVjP1pmRWUvvLB1re
H+ChErFzVvXxuaC78R1CZxMQyPb0HezMyl61Y23VltownN8PD7P5KJDe2g5NSKoy
5ar6X4krR1VTM6+kaEZUe/mb0K0kU/rvWK8RziK3SElEfmR1b1o1t4bSD1PEdCpA
wkil4u9GrlYrABEBAAG0IUFsYmVydCBBc3RhbHMgQ2lkIDxhYWNpZEBrZGUub3Jn
PokCVAQTAQgAPgIbAwULCQgHAgYVCAkKCwIEFgIDAQIeAQIXgBYhBMomLGyD3k0v
soozKjpqTbg56qbXBQJi/nb/BQkNE9cgAAoJEDpqTbg56qbXOSwP/3kd2wtsIyVB
YiZ+3EBjTBQ1UtO+3v72uOm3+6fIKp20P25LsnpN+V2Z3bM/EgkXGkPHcArmAkYC
XyEG4BEFMbqbMNLKiHLSV0sCuhpvbMqf+EZ+cCXFm2xrwMaY2EopvzMTIqtozaCt
1zZsIX+xDnIqYLRMcBDAwGMseizMphX7L9HfijWdllq58+s1Yw93eGaLIKXm/OZE
NAlq2aQO+55jI8y3cV8mi9a2LFYUex2dDvaXaR6WSGk1znVGmBnqUKb2CFZZMu84
Q+FHm2lhD4LKQ9q2bOEtdS2Gd9MKmFA1/qdfuOOWWrtJ3gxpMCaePTJ+hPIeN2o8
Bi/bp0xsGVHaUDFfPZKjJBlUeAZB4RbieWXpd6Pbl3XIqc5fA7iDdEG392/hDwhA
ofINljmEmi2DY6sDWEv3Oxv7qUqMyvRQQlryWGHBIqGVXMPR92s5o/uklR+PJ3QK
s+uWuB02ijh5XRtdXmS4Up8KCbBEcpbIkoNzUKaclF4UwlAZ8UyK47K9iFWFTE0H
NLuxXcgXbyvWfWIo314ZKBwGMBVbYspqrROFbVBdZxZPu+51xeNur2RC45OHt8EQ
zjvAeHKqEs/lM4gEFojFbbHzsCDiLYcpQzY+xX6PqvMzCIJ/Mg1RL4gR9RNfnYxz
clQoKo6upWU0nV3/j6aSyGXPBADagXMRmDMEZ9pTzRYJKwYBBAHaRw8BAQdAsDVg
SnlQz3sFeADrc7m+vuCDldaK8wzIvTTVPCEPTXG0HURldmluIExpbiA8ZXNwaWRl
dkBnbWFpbC5jb20+iJMEExYKADsWIQQjkZrnEQPAITdCLjxeAj+XxbtMEwUCZ9pT
zQIbAwULCQgHAgIiAgYVCgkICwIEFgIDAQIeBwIXgAAKCRBeAj+XxbtMEytSAP4p
JQSLbY8X0aZ81wM2KnXpHafAFhhoW7jgvMuSJtEQeQD/Ybgg1cNf+xxXZwDWbZfH
Ecf6sFNmK7M08Pjbu8M67gC4OARn2lPNEgorBgEEAZdVAQUBAQdAS2xTdw/EQnvL
Y9gbqMJ4A1rx/+o1762hL24XwXKki1oDAQgHiHgEGBYKACAWIQQjkZrnEQPAITdC
LjxeAj+XxbtMEwUCZ9pTzQIbDAAKCRBeAj+XxbtMEzkCAQCk7LNhrgHhCBOtZTcA
wgKpYgn5aAdB4qzEL0DxFAegPAD8DLzEOY+nzfZIp11JY1M3bQ3mKfAp7Cxxc2F7
Z090eAU=
=BpZQ
-----END PGP PUBLIC KEY BLOCK-----
